assets/Moai/Flat/moai_flat.svg

<svg width="32" height="32" viewBox="0 0 32 32" fill="none" xmlns="http://www.w3.org/2000/svg">
<path d="M4.00002 27V25L4.98895 23.9796L3.32458 23.0716C3.32458 22.2641 3.43227 22.1349 4.00002 21.6182C4.55199 21.1927 5.00584 20.6364 5.3943 20H3.50765C2.05932 20 1.45204 18.1506 2.61842 17.292L8.08831 13.2655C8.36926 12.5358 8.56385 11.7585 8.58718 10.9849L10.0176 9.02011L8.13798 7.00261C8.2479 6.67882 8.4373 6.38239 8.7008 6.1456L11.8886 3.28099C12.8064 2.45625 13.9967 2 15.2306 2H22C24.2092 2 26 3.79086 26 6V6.55071L28.0119 8.98731L12.5175 30.0021L7.00002 30C5.34317 30 4.00002 28.6569 4.00002 27Z" fill="#D3D3D3"/>
<path d="M26 26V22.5065C26.0035 22.7797 26.226 23 26.5 23H27.5C28.3284 23 29 22.3284 29 21.5V7.5C29 6.67157 28.3284 6 27.5 6H26.5C26.2254 6 26.0025 6.22136 26 6.49537V10.0991C24.5798 11.098 23.7908 11.7092 22.5 13C22.3247 13.1752 22.1187 13.3736 21.8874 13.5963C19.4789 15.9149 14.3246 20.8769 12.5 30H22C24.2092 30 26 28.2091 26 26Z" fill="#9B9B9B"/>
<path d="M11.6806 18.6814C11.395 19.4696 10.6482 19.9957 9.81048 20H3.49828C3.34765 19.9991 3.20619 19.9783 3.07495 19.9406C2.41198 19.7502 2.81636 19 3.50612 19H9.86757C10.2792 19 10.6488 18.7477 10.7988 18.3644L13.2785 12.0273C13.5294 11.3861 14.3248 11.3843 14.0902 12.0317L11.6806 18.6814Z" fill="#9B9B9B"/>
<path d="M26 22.5046V6.49537C26.0025 6.22136 26.2254 6 26.5 6H27V23H26.5C26.2254 23 26.0025 22.7786 26 22.5046Z" fill="#636363"/>
<path d="M11.1659 11H8.58666C8.60004 10.5952 8.56668 10.1912 8.47442 9.79543C8.35691 9.29135 8.23146 8.75994 8.09484 8.23076C7.98834 7.81821 8.00611 7.38925 8.13883 7H19C20.1045 7 21 7.89543 21 9C21 10.1046 20.1045 11 19 11H14.0658C13.7343 10.2463 12.7403 9.84105 11.944 10.4272L11.1659 11Z" fill="#636363"/>
<path d="M14 25H4.00002L3.32458 23.0716C3.32458 23.0471 3.32468 23.0233 3.32489 23H14C14.5523 23 15 23.4477 15 24C15 24.5523 14.5523 25 14 25Z" fill="#636363"/>
</svg>

<svg xmlns="http://www.w3.org/2000/svg" width="32" height="32" fill="none"><path fill="#D3D3D3" d="M4 27v-2l.989-1.02-1.664-.908c0-.808.107-.937.675-1.454.552-.425 1.006-.982 1.394-1.618H3.508c-1.449 0-2.056-1.85-.89-2.708l5.47-4.027c.281-.73.476-1.507.5-2.28l1.43-1.965-1.88-2.017c.11-.324.3-.62.563-.857l3.188-2.865A5 5 0 0 1 15.23 2H22a4 4 0 0 1 4 4v.55l2.012 2.437-15.495 21.015L7 30a3 3 0 0 1-3-3Z"/><path fill="#9B9B9B" d="M26 26v-3.494a.5.5 0 0 0 .5.494h1a1.5 1.5 0 0 0 1.5-1.5v-14A1.5 1.5 0 0 0 27.5 6h-1a.5.5 0 0 0-.5.495V10.1c-1.42.999-2.21 1.61-3.5 2.901a48.3 48.3 0 0 1-.613.596C19.48 15.915 14.325 20.876 12.5 30H22a4 4 0 0 0 4-4ZM11.68 18.681A2 2 0 0 1 9.81 20H3.498c-.15 0-.292-.022-.423-.06-.663-.19-.259-.94.431-.94h6.362a1 1 0 0 0 .93-.636l2.48-6.337c.251-.64 1.047-.643.812.005l-2.41 6.65Z"/><path fill="#636363" d="M26 22.505V6.495A.5.5 0 0 1 26.5 6h.5v17h-.5a.5.5 0 0 1-.5-.495ZM11.166 11h-2.58a4.621 4.621 0 0 0-.112-1.205 68.277 68.277 0 0 0-.38-1.564A2.152 2.152 0 0 1 8.14 7H19a2 2 0 0 1 0 4h-4.934c-.332-.754-1.326-1.159-2.122-.573l-.778.573ZM14 25H4l-.675-1.928V23H14a1 1 0 1 1 0 2Z"/></svg>
